src/categories-icons-sprite/categories/svg-cat-home-kitchen.svg

<svg width="35" height="42" viewBox="0 0 35 42" fill="none" xmlns="http://www.w3.org/2000/svg">
<path class="p-87A0AF" d="M8.61851 13.7715H4.51367L6.15561 41.9998H8.61851V13.7715Z" fill="#4D98CB"/>
<path class="p-87A0AF" d="M23.3968 13.7715H19.292L20.9339 41.9998H23.3968V13.7715Z" fill="#4D98CB"/>
<path class="p-B4D2D7" d="M20.9336 13.7715H18.4707V41.9998H20.9336V13.7715Z" fill="#5FBEFF"/>
<path class="p-E1EBF0" d="M17.2383 8.49681L14.7773 8.19822V0H17.2383V8.49681Z" fill="#B9DFFC"/>
<path class="p-E1EBF0" d="M22.1641 0H19.7031V8.49681H22.1641V0Z" fill="#B9DFFC"/>
<path class="p-B4D2D7" d="M27.0898 8.19822L24.6289 8.49681V0H27.0898V8.19822Z" fill="#A1D1FD"/>
<path class="p-B4D2D7" d="M6.15724 13.7715H3.69434V41.9998H6.15724V13.7715Z" fill="#5FBEFF"/>
<path class="p-B4D2D7" d="M20.9339 7.26636L19.292 9.35158L20.9339 15.6627C24.3285 15.6627 27.0902 12.9011 27.0902 9.50646V7.26636H20.9339Z" fill="#A1D1FD"/>
<path class="p-E1EBF0" d="M14.7773 7.26636V9.50637C14.7773 12.901 17.5391 15.6627 20.9336 15.6627V7.26636H14.7773Z" fill="#B9DFFC"/>
<path class="p-B4D2D7" d="M6.15561 0L4.51367 7.83136L6.15561 15.6627C9.55023 15.6627 12.3119 12.9011 12.3119 9.50644V6.15628C12.3119 2.76166 9.55023 0 6.15561 0Z" fill="#A1D1FD"/>
<path class="p-E1EBF0" d="M6.15628 0C2.76166 0 0 2.76166 0 6.15628V9.50644C0 12.9011 2.76175 15.6627 6.15628 15.6627V0Z" fill="#B9DFFC"/>
<path class="p-87A0AF" d="M34.4789 18.1275L30.374 16.4856L32.016 41.9999H34.4789V18.1275Z" fill="#4D98CB"/>
<path class="p-B4D2D7" d="M29.5537 18.1275V41.9999H32.0166V16.4856L29.5537 18.1275Z" fill="#5FBEFF"/>
<path class="p-B4D2D7" d="M34.4789 19.0595V4.92586C34.4789 3.10296 33.4878 1.51246 32.016 0.660645L30.374 10.5326L32.016 19.0594L34.4789 19.0595Z" fill="#A1D1FD"/>
<path class="p-E1EBF0" d="M32.0166 0.660598C31.292 0.241254 30.4512 0 29.5537 0V19.0595H32.0166V0.660598Z" fill="#B9DFFC"/>
</svg>

<svg width="35" height="42" fill="none" xmlns="http://www.w3.org/2000/svg"><path class="p-87A0AF" d="M8.619 13.771H4.514L6.156 42h2.463V13.77zM23.397 13.771h-4.105L20.934 42h2.463V13.77z" fill="#4D98CB"/><path class="p-B4D2D7" d="M20.934 13.771H18.47V42h2.463V13.77z" fill="#5FBEFF"/><path class="p-E1EBF0" d="M17.238 8.497l-2.46-.299V0h2.46v8.497zM22.164 0h-2.46v8.497h2.46V0z" fill="#B9DFFC"/><path class="p-B4D2D7" d="M27.09 8.198l-2.461.299V0h2.46v8.198z" fill="#A1D1FD"/><path class="p-B4D2D7" d="M6.157 13.771H3.694V42h2.463V13.77z" fill="#5FBEFF"/><path class="p-B4D2D7" d="M20.934 7.266l-1.642 2.086 1.642 6.31a6.163 6.163 0 006.156-6.156v-2.24h-6.156z" fill="#A1D1FD"/><path class="p-E1EBF0" d="M14.777 7.266v2.24a6.163 6.163 0 006.157 6.157V7.266h-6.157z" fill="#B9DFFC"/><path class="p-B4D2D7" d="M6.156 0L4.514 7.831l1.642 7.832a6.163 6.163 0 006.156-6.157v-3.35A6.163 6.163 0 006.156 0z" fill="#A1D1FD"/><path class="p-E1EBF0" d="M6.156 0A6.163 6.163 0 000 6.156v3.35a6.163 6.163 0 006.156 6.157V0z" fill="#B9DFFC"/><path class="p-87A0AF" d="M34.479 18.128l-4.105-1.642L32.016 42h2.463V18.128z" fill="#4D98CB"/><path class="p-B4D2D7" d="M29.554 18.128V42h2.463V16.486l-2.463 1.642z" fill="#5FBEFF"/><path class="p-B4D2D7" d="M34.479 19.06V4.925A4.923 4.923 0 0032.016.66l-1.642 9.872 1.642 8.526h2.463z" fill="#A1D1FD"/><path class="p-E1EBF0" d="M32.017.66A4.901 4.901 0 0029.554 0v19.06h2.463V.66z" fill="#B9DFFC"/></svg>
